svg/100/outlined/more_vert-fill.svg

<svg xmlns="http://www.w3.org/2000/svg" width="48" height="48" viewBox="0 -960 960 960"><path d="M479.911-236q-7.461 0-12.686-5.313Q462-246.627 462-254.089q0-7.461 5.313-13.186Q472.627-273 480.089-273q7.461 0 12.686 5.623T498-253.858q0 7.483-5.313 12.67Q487.373-236 479.911-236Zm0-226q-7.461 0-12.686-5.313Q462-472.627 462-480.089q0-7.461 5.313-12.686Q472.627-498 480.089-498q7.461 0 12.686 5.313Q498-487.373 498-479.911q0 7.461-5.313 12.686Q487.373-462 479.911-462Zm0-225q-7.461 0-12.686-5.623T462-706.142q0-7.483 5.313-12.67Q472.627-724 480.089-724q7.461 0 12.686 5.313Q498-713.373 498-705.911q0 7.461-5.313 13.186Q487.373-687 479.911-687Z"/></svg>

<svg xmlns="http://www.w3.org/2000/svg" width="48" height="48" viewBox="0 -960 960 960"><path d="M479.91-236q-7.46 0-12.68-5.31-5.23-5.32-5.23-12.78 0-7.46 5.31-13.18 5.32-5.73 12.78-5.73 7.46 0 12.68 5.62 5.23 5.63 5.23 13.52 0 7.48-5.31 12.67-5.32 5.19-12.78 5.19Zm0-226q-7.46 0-12.68-5.31-5.23-5.32-5.23-12.78 0-7.46 5.31-12.68 5.32-5.23 12.78-5.23 7.46 0 12.68 5.31 5.23 5.32 5.23 12.78 0 7.46-5.31 12.68-5.32 5.23-12.78 5.23Zm0-225q-7.46 0-12.68-5.62-5.23-5.63-5.23-13.52 0-7.49 5.31-12.67 5.32-5.19 12.78-5.19 7.46 0 12.68 5.31 5.23 5.32 5.23 12.78 0 7.46-5.31 13.19-5.32 5.72-12.78 5.72Z"/></svg>
